svg/furkot/freepik/jeep.svg

<svg viewBox="0 0 512 512" xmlns="http://www.w3.org/2000/svg"><path d="m479.057 131.348v64.207h8.58v11.704h-15.705v-17.782h-32.061v-146.265h-366.362v146.265h-32.06v17.782h-15.705v-11.704h8.58v-64.207h-34.324v64.207h8.58v28.868h32.869v180.54h28.715v65.203h85.815v-65.203h201.426v65.203h85.814v-65.203h28.716v-180.537h32.868v-28.868h8.581v-64.21zm-365.934 165.865c-16.441 0-29.794-13.369-29.794-29.845 0-16.442 13.353-29.794 29.794-29.794 16.494 0 29.829 13.352 29.829 29.794 0 16.476-13.335 29.845-29.829 29.845zm81.506 60.931h-17.163v-121.893h17.163zm43.888 0h-17.163v-121.893h17.163zm43.989 0h-17.163v-121.893h17.163zm7.07-168.664h-181.74v-111.938h297.711v111.938h-8.735c.224-1.904.583-3.776.583-5.732 0-29.88-24.32-54.2-54.2-54.2s-54.2 24.32-54.2 54.2c-.003 1.976.34 3.828.581 5.732zm36.833 168.664h-17.164v-121.893h17.164zm-19.669-168.664c-.308-1.887-.584-3.776-.584-5.732 0-20.426 16.614-37.04 37.039-37.04s37.04 16.614 37.04 37.04c0 1.973-.291 3.863-.584 5.732zm93.486 107.733c-16.459 0-29.794-13.369-29.794-29.845 0-16.442 13.335-29.794 29.794-29.794 16.476 0 29.828 13.352 29.828 29.794.055 16.476-13.349 29.845-29.828 29.845z"/></svg>

<svg xmlns="http://www.w3.org/2000/svg" viewBox="0 0 512 512"><path d="M479.057 131.348V195.555H487.637V207.259H471.932V189.477H439.871V43.212H73.509V189.477H41.449V207.259H25.744V195.555H34.324V131.348H0V195.555H8.58V224.423H41.449V404.963H70.164V470.166H155.979V404.963H357.405V470.166H443.219V404.963H471.935V224.426H504.803V195.558H513.384V131.348C513.384 131.348 479.057 131.348 479.057 131.348ZM113.123 297.213C96.682 297.213 83.329 283.844 83.329 267.368 83.329 250.926 96.682 237.574 113.123 237.574 129.617 237.574 142.952 250.926 142.952 267.368 142.952 283.844 129.617 297.213 113.123 297.213ZM194.629 358.144H177.466V236.251H194.629V358.144ZM238.517 358.144H221.354V236.251H238.517V358.144ZM282.506 358.144H265.343V236.251H282.506V358.144ZM289.576 189.48H107.836V77.542H405.547V189.48H396.812C397.036 187.576 397.395 185.704 397.395 183.748 397.395 153.868 373.075 129.548 343.195 129.548S288.995 153.868 288.995 183.748C288.992 185.724 289.335 187.576 289.576 189.48ZM326.409 358.144H309.245V236.251H326.409V358.144ZM306.74 189.48C306.432 187.593 306.156 185.704 306.156 183.748 306.156 163.322 322.77 146.708 343.195 146.708S380.235 163.322 380.235 183.748C380.235 185.721 379.944 187.611 379.651 189.48H306.74ZM400.226 297.213C383.767 297.213 370.432 283.844 370.432 267.368 370.432 250.926 383.767 237.574 400.226 237.574 416.702 237.574 430.054 250.926 430.054 267.368 430.109 283.844 416.705 297.213 400.226 297.213Z"/></svg>
